icons/filled/badge-3d.svg

<!--
category: Filled
version: "3.0.0-alpha.1"
-->
<svg
  xmlns="http://www.w3.org/2000/svg"
  width="24"
  height="24"
  viewBox="0 0 24 24"
  fill="none"
  stroke="currentColor"
  stroke-width="2"
  stroke-linecap="round"
  stroke-linejoin="round"
>
  <path d="M19 4a3 3 0 0 1 3 3v10a3 3 0 0 1 -3 3h-14a3 3 0 0 1 -3 -3v-10a3 3 0 0 1 3 -3zm-10.5 4h-1.5a1 1 0 1 0 0 2h1.5a.5 .5 0 0 1 .09 .992l-.09 .008h-.5c-1.287 0 -1.332 1.864 -.133 1.993l.133 .007h.5a.5 .5 0 1 1 0 1h-1.5a1 1 0 0 0 0 2h1.5a2.5 2.5 0 0 0 2.5 -2.5l-.005 -.164a2.5 2.5 0 0 0 -.477 -1.312l-.019 -.024l.019 -.024a2.5 2.5 0 0 0 -2.018 -3.976m6.5 0h-1a1 1 0 0 0 -1 1v6a1 1 0 0 0 1 1h1a3 3 0 0 0 3 -3v-2a3 3 0 0 0 -3 -3m0 2a1 1 0 0 1 1 1v2a1 1 0 0 1 -.883 .993l-.117 .007z" stroke-width="0" fill="currentColor" />
</svg>

<!--
category: Filled
version: "3.0.0-alpha.1"
-->
<svg
  xmlns="http://www.w3.org/2000/svg"
  width="24"
  height="24"
  viewBox="0 0 24 24"
  fill="none"
  stroke="currentColor"
  stroke-width="2"
  stroke-linecap="round"
  stroke-linejoin="round"
>
  <path d="M19 4a3 3 0 0 1 3 3v10a3 3 0 0 1-3 3H5a3 3 0 0 1-3-3V7a3 3 0 0 1 3-3zM8.5 8H7a1 1 0 1 0 0 2h1.5a.5.5 0 0 1 .09.992L8.5 11H8c-1.287 0-1.332 1.864-.133 1.993L8 13h.5a.5.5 0 1 1 0 1H7a1 1 0 0 0 0 2h1.5a2.5 2.5 0 0 0 2.5-2.5l-.005-.164a2.5 2.5 0 0 0-.477-1.312L10.499 12l.019-.024A2.5 2.5 0 0 0 8.5 8M15 8h-1a1 1 0 0 0-1 1v6a1 1 0 0 0 1 1h1a3 3 0 0 0 3-3v-2a3 3 0 0 0-3-3m0 2a1 1 0 0 1 1 1v2a1 1 0 0 1-.883.993L15 14z" stroke-width="0" fill="currentColor" />
</svg>
